src/main/resources/icons/SpringApiIcons/icons/SpringProfile.svg

<svg xmlns="http://www.w3.org/2000/svg" width="16" height="16" viewBox="0 0 16 16">
  <g fill="none" fill-rule="evenodd">
    <path fill="#62B543" fill-opacity=".7" d="M9.33305221,11.9305706 C9.38710606,11.8902674 9.44094847,11.8492889 9.49455319,11.8076536 C9.52187009,11.8291026 9.54953914,11.8501235 9.57755025,11.870706 C9.49624732,11.8895758 9.41467975,11.9095308 9.33305221,11.9305706 Z M6.50587759,13.3657909 C6.25964859,13.6325223 6.08969086,13.9297872 6.0268816,14.2575036 C5.46697454,14.2414648 4.93383606,14.2325926 4.44717245,14.2546012 C4.44717245,14.2546012 3.94283089,14.2832335 3.43439732,14.3670851 C3.43439732,14.3670851 3.62672229,14.2852786 3.87224354,14.2004045 C5.00982175,13.807216 5.80649886,13.5926782 6.50587759,13.3657909 Z M14.002901,12.0233433 C13.8097501,11.9663592 13.615355,11.9154777 13.4224497,11.870706 C14.2274897,11.2791633 14.75,10.3256011 14.75,9.25 C14.75,8.01700112 14.0633779,6.94437143 13.0516357,6.393613 C13.0523329,6.38966096 13.053026,6.38570869 13.0537151,6.3817562 C13.0524686,6.38540618 13.0512184,6.38905543 13.0499646,6.39270395 C12.5892676,6.14226622 12.0612478,6 11.5,6 C9.70507456,6 8.25,7.45507456 8.25,9.25 C8.25,9.96382569 8.48013187,10.6239012 8.8702502,11.1600811 C8.29575467,11.5077323 7.70739058,11.7939861 7.13256106,12.0059474 C5.4834767,12.61336 2.50243959,13.2064565 2.50243959,13.2074791 L2.38172498,13.1430565 C0.354128707,12.1572892 0.297863422,7.76939754 3.97863607,6.35516911 C5.59293826,5.73446293 7.13665308,6.07600472 8.88087692,5.65981457 C10.7417233,5.21805992 12.8961723,3.81917019 13.7718647,2 C14.7250734,4.82373621 15.8629334,9.19232403 14.002901,12.0233433 Z"/>
    <path fill="#9AA7B0" d="M11.5 11.5C12.743125 11.5 13.75 10.493125 13.75 9.25 13.75 8.006875 12.743125 7 11.5 7 10.256875 7 9.25 8.006875 9.25 9.25 9.25 10.493125 10.256875 11.5 11.5 11.5zM11.5 12.625C9.998125 12.625 7 13.37875 7 14.875L7 16 16 16 16 14.875C16 13.37875 13.001875 12.625 11.5 12.625z"/>
  </g>
</svg>

<svg xmlns="http://www.w3.org/2000/svg" width="16" height="16" viewBox="0 0 16 16"><rect id="frame" width="16" height="16" fill="none"/><g fill="none" fill-rule="evenodd"><path fill="#62B543" fill-opacity=".7" d="M9.333 11.93c.054-.04.108-.08.162-.122l.083.063c-.082.019-.163.039-.245.06zm-2.827 1.436c-.246.267-.416.564-.48.892a21.921 21.921 0 0 0-1.579-.003s-.504.028-1.013.112c0 0 .193-.082.438-.167 1.138-.393 1.934-.607 2.634-.834zm7.497-1.343a10.222 10.222 0 0 0-.58-.152 3.25 3.25 0 0 0-.37-5.477 5.996 5.996 0 0 0-.003-.001 3.25 3.25 0 0 0-4.18 4.767 10.21 10.21 0 0 1-1.737.846c-1.65.607-4.63 1.2-4.63 1.201l-.121-.064C.354 12.157.298 7.77 3.979 6.355c1.614-.62 3.158-.279 4.902-.695 1.86-.442 4.015-1.84 4.89-3.66.954 2.824 2.092 7.192.232 10.023z"/><path fill="#9AA7B0" d="M11.5 11.5a2.25 2.25 0 1 0 .001-4.499A2.25 2.25 0 0 0 11.5 11.5zm0 1.125c-1.502 0-4.5.754-4.5 2.25V16h9v-1.125c0-1.496-2.998-2.25-4.5-2.25z"/></g></svg>
